assets/svgs/misc-grey/MiscGrey107.svg

<svg width="39" height="39" viewBox="0 0 39 39" fill="none" xmlns="http://www.w3.org/2000/svg">
<path fill-rule="evenodd" clip-rule="evenodd" d="M9.94999 13.77H14.48V9.24003C14.48 8.41003 15.15 7.74003 15.98 7.74003C16.81 7.74003 17.48 8.41003 17.48 9.24003V13.77H22.01C22.83 13.77 23.51 14.44 23.51 15.27C23.51 16.09 22.83 16.77 22.01 16.77H17.48V21.29C17.48 22.12 16.81 22.79 15.98 22.79C15.15 22.79 14.48 22.12 14.48 21.29V16.77H9.94999C9.11999 16.77 8.44999 16.09 8.44999 15.27C8.44999 14.44 9.11999 13.77 9.94999 13.77ZM15.98 27.44C22.69 27.44 28.15 21.98 28.15 15.27C28.15 8.55003 22.69 3.09003 15.98 3.09003C9.25999 3.09003 3.79999 8.55003 3.79999 15.27C3.79999 21.98 9.25999 27.44 15.98 27.44ZM15.98 0.0900269C24.35 0.0900269 31.15 6.90003 31.15 15.27C31.15 19.13 29.69 22.65 27.31 25.33L37.86 35.88C38.45 36.47 38.45 37.42 37.86 38C37.57 38.3 37.19 38.44 36.8 38.44C36.42 38.44 36.04 38.3 35.74 38L25.1 27.36C22.56 29.29 19.4 30.44 15.98 30.44C7.60999 30.44 0.799992 23.63 0.799992 15.27C0.799992 6.90003 7.60999 0.0900269 15.98 0.0900269Z" fill="#1A1919"/>
</svg>

<svg xmlns="http://www.w3.org/2000/svg" viewBox="0 0 39 39"><path fill-rule="evenodd" d="M9.95 13.77h4.53V9.24c0-.83.67-1.5 1.5-1.5s1.5.67 1.5 1.5v4.53h4.53c.82 0 1.5.67 1.5 1.5 0 .82-.68 1.5-1.5 1.5h-4.53v4.52c0 .83-.67 1.5-1.5 1.5s-1.5-.67-1.5-1.5v-4.52H9.95c-.83 0-1.5-.68-1.5-1.5 0-.83.67-1.5 1.5-1.5zm6.03 13.67c6.71 0 12.17-5.46 12.17-12.17 0-6.72-5.46-12.18-12.17-12.18C9.26 3.09 3.8 8.55 3.8 15.27c0 6.71 5.46 12.17 12.18 12.17zm0-27.35c8.37 0 15.17 6.81 15.17 15.18 0 3.86-1.46 7.38-3.84 10.06l10.55 10.55c.59.59.59 1.54 0 2.12-.29.3-.67.44-1.06.44-.38 0-.76-.14-1.06-.44L25.1 27.36a15.03 15.03 0 01-9.12 3.08C7.61 30.44.8 23.63.8 15.27.8 6.9 7.61.09 15.98.09z" clip-rule="evenodd"/></svg>
